file/lightroom.svg

<svg clip-rule="evenodd" fill-rule="evenodd" stroke-linejoin="round" stroke-miterlimit="1.41421" viewBox="0 0 560 400" xmlns="http://www.w3.org/2000/svg"><g transform="matrix(1.125 0 0 1.125 145 68.375)"><path d="m197.5 234h-155c-23.5 0-42.5-19-42.5-42.5v-149c0-23.5 19-42.5 42.5-42.5h155c23.5 0 42.5 19 42.5 42.5v149c0 23.5-19 42.5-42.5 42.5z" fill="#3df0f0" fill-rule="nonzero"/><path d="m193.7 224h-147.4c-20 0-36.3-16.3-36.3-36.4v-141.2c0-20.1 16.3-36.4 36.3-36.4h147.3c20.1 0 36.3 16.3 36.3 36.3v141.3c.1 20.1-16.2 36.4-36.2 36.4z" fill="#022326" fill-rule="nonzero"/><path d="m66.5 163.3c-1.2 0-1.5-.5-1.5-1.5v-107.5c0-.8.3-1.3 1.2-1.3h15.8c.8 0 1 .3 1 1.2v92.6h41.2c.8 0 1.1.3.9 1.2l-2.5 14.2c-.2.8-.7 1.2-1.5 1.2h-54.6zm75-64.8c0-1.2 0-4.1-.5-9.7 0-.8.2-1 .8-1.3 6.1-2.5 20.6-6.9 36.8-6.9.8 0 1.2.2 1.2 1v14.4c0 .8-.3 1-1.2 1-6.3-.3-15.6.5-19.1 2v63.1c0 .8-.3 1.2-1.2 1.2h-15.7c-.8 0-1.2-.3-1.2-1.2v-63.6z" fill="#ccfbff"/></g></svg>

<?xml version="1.0" encoding="UTF-8" standalone="no"?>
<!DOCTYPE svg PUBLIC "-//W3C//DTD SVG 1.1//EN" "http://www.w3.org/Graphics/SVG/1.1/DTD/svg11.dtd">
<svg width="100%" height="100%" viewBox="0 0 560 400" version="1.1" xmlns="http://www.w3.org/2000/svg" xmlns:xlink="http://www.w3.org/1999/xlink" xml:space="preserve" xmlns:serif="http://www.serif.com/" style="fill-rule:evenodd;clip-rule:evenodd;stroke-linejoin:round;stroke-miterlimit:1.41421;">
    <g transform="matrix(1.125,0,0,1.125,145,68.375)">
        <path d="M197.5,234L42.5,234C19,234 0,215 0,191.5L0,42.5C0,19 19,0 42.5,0L197.5,0C221,0 240,19 240,42.5L240,191.5C240,215 221,234 197.5,234Z" style="fill:rgb(61,240,240);fill-rule:nonzero;"/>
        <path d="M193.7,224L46.3,224C26.3,224 10,207.7 10,187.6L10,46.4C10,26.3 26.3,10 46.3,10L193.6,10C213.7,10 229.9,26.3 229.9,46.3L229.9,187.6C230,207.7 213.7,224 193.7,224Z" style="fill:rgb(2,35,38);fill-rule:nonzero;"/>
        <path d="M66.5,163.3C65.3,163.3 65,162.8 65,161.8L65,54.3C65,53.5 65.3,53 66.2,53L82,53C82.8,53 83,53.3 83,54.2L83,146.8L124.2,146.8C125,146.8 125.3,147.1 125.1,148L122.6,162.2C122.4,163 121.9,163.4 121.1,163.4L66.5,163.4L66.5,163.3ZM141.5,98.5C141.5,97.3 141.5,94.4 141,88.8C141,88 141.2,87.8 141.8,87.5C147.9,85 162.4,80.6 178.6,80.6C179.4,80.6 179.8,80.8 179.8,81.6L179.8,96C179.8,96.8 179.5,97 178.6,97C172.3,96.7 163,97.5 159.5,99L159.5,162.1C159.5,162.9 159.2,163.3 158.3,163.3L142.6,163.3C141.8,163.3 141.4,163 141.4,162.1L141.4,98.5L141.5,98.5Z" style="fill:rgb(204,251,255);"/>
    </g>
</svg>
